X:444
T: "Weihnachten"
N: Z1124
O: Europa, Mitteleuropa, Deutschland, Niederrhein
R: religioeses Lied, Weihnachts - Lied
M: 6/8
L: 1/16
K: G
D2 | G4A2B2A2d2 | ^c2d2e2d2c2
d2 | A2B2^c2d4
B=c | d4e2d2c2B2 | c4d2B2A2
G2 | A4B2c2B2A2 | G4z6
Bc | d4e2d2c2B2 | c4d2B2A2
G2 | A4B2c2B2A2 | G4z6

